packages/ui/public/icons/file.svg

<svg width="24" height="25" viewBox="0 0 24 25" fill="none" xmlns="http://www.w3.org/2000/svg">
<path opacity="0.4" d="M4 7.3C4 5.61984 4 4.77976 4.32698 4.13803C4.6146 3.57354 5.07354 3.1146 5.63803 2.82698C6.27976 2.5 7.11984 2.5 8.8 2.5H15.2C16.8802 2.5 17.7202 2.5 18.362 2.82698C18.9265 3.1146 19.3854 3.57354 19.673 4.13803C20 4.77976 20 5.61984 20 7.3V17.7C20 19.3802 20 20.2202 19.673 20.862C19.3854 21.4265 18.9265 21.8854 18.362 22.173C17.7202 22.5 16.8802 22.5 15.2 22.5H8.8C7.11984 22.5 6.27976 22.5 5.63803 22.173C5.07354 21.8854 4.6146 21.4265 4.32698 20.862C4 20.2202 4 19.3802 4 17.7V7.3Z" stroke="white" stroke-width="2" stroke-linecap="round" stroke-linejoin="round"/>
<path d="M12 8.5V18.5M8 14.5V18.5V14.5ZM16 12.5V18.5V12.5Z" stroke="white" stroke-width="2" stroke-linecap="round" stroke-linejoin="round"/>
</svg>

<svg width="24" height="25" fill="none" xmlns="http://www.w3.org/2000/svg"><path opacity=".4" d="M4 7.3c0-1.68 0-2.52.327-3.162a3 3 0 0 1 1.311-1.311C6.28 2.5 7.12 2.5 8.8 2.5h6.4c1.68 0 2.52 0 3.162.327a3 3 0 0 1 1.311 1.311C20 4.78 20 5.62 20 7.3v10.4c0 1.68 0 2.52-.327 3.162a3 3 0 0 1-1.311 1.311c-.642.327-1.482.327-3.162.327H8.8c-1.68 0-2.52 0-3.162-.327a3 3 0 0 1-1.311-1.311C4 20.22 4 19.38 4 17.7V7.3Z" stroke="#fff" stroke-width="2" stroke-linecap="round" stroke-linejoin="round"/><path d="M12 8.5v10m-4-4v4-4Zm8-2v6-6Z" stroke="#fff" stroke-width="2" stroke-linecap="round" stroke-linejoin="round"/></svg>
